src/Assets/icons/12-fullscreen/fullscreen-icon.svg

<?xml version="1.0" encoding="UTF-8" standalone="no"?>
<!DOCTYPE svg PUBLIC "-//W3C//DTD SVG 1.1//EN" "http://www.w3.org/Graphics/SVG/1.1/DTD/svg11.dtd">
<svg width="100%" height="100%" viewBox="0 0 2000 2000" version="1.1" xmlns="http://www.w3.org/2000/svg" xmlns:xlink="http://www.w3.org/1999/xlink" xml:space="preserve" xmlns:serif="http://www.serif.com/" style="fill-rule:evenodd;clip-rule:evenodd;stroke-linejoin:round;stroke-miterlimit:2;">
    <g transform="matrix(2.36128,0,0,1.7452,-1303.42,-719.023)">
        <path d="M1399,457.84C1399,432.54 1383.82,412 1365.12,412L585.88,412C567.181,412 552,432.54 552,457.84L552,1512.16C552,1537.46 567.181,1558 585.88,1558L1365.12,1558C1383.82,1558 1399,1537.46 1399,1512.16L1399,457.84Z" style="fill:rgb(230,230,230);"/>
    </g>
    <g transform="matrix(80,0,0,80,40,40)">
        <path d="M9.707,9.71C9.507,9.9 9.257,10 8.997,10C8.737,10 8.487,9.9 8.287,9.71L3.5,4.92L3.15,5.26L1.71,6.71C1.51,6.9 1.26,7 1,7C0.87,7 0.74,6.97 0.62,6.92C0.24,6.77 0,6.4 0,6L0,1C0,0.45 0.45,0 1,0L6,0C6.4,0 6.77,0.24 6.92,0.62C7.08,0.99 6.99,1.42 6.71,1.71L5.26,3.15L4.92,3.5L9.708,8.29C10.098,8.68 10.098,9.32 9.708,9.71L9.707,9.71ZM14.293,9.71C14.493,9.9 14.743,10 15.003,10C15.263,10 15.513,9.9 15.713,9.71L20.503,4.92L20.853,5.26L22.293,6.71C22.49,6.9 22.74,7 23,7C23.13,7 23.26,6.97 23.38,6.92C23.76,6.77 24,6.4 24,6L24,1C24,0.45 23.55,0 23,0L18,0C17.6,0 17.23,0.24 17.08,0.62C16.92,0.99 17.01,1.42 17.29,1.71L18.74,3.15L19.08,3.5L14.292,8.29C13.902,8.68 13.902,9.32 14.292,9.71L14.293,9.71ZM9.707,14.29C9.507,14.1 9.257,14 8.997,14C8.737,14 8.487,14.1 8.287,14.29L3.5,19.08L3.15,18.74L1.71,17.29C1.51,17.1 1.26,17 1,17C0.87,17 0.74,17.03 0.62,17.08C0.24,17.23 0,17.6 0,18L0,23C0,23.55 0.45,24 1,24L6,24C6.4,24 6.77,23.76 6.92,23.38C7.08,23.01 6.99,22.58 6.71,22.29L5.26,20.85L4.92,20.5L9.708,15.71C10.098,15.32 10.098,14.68 9.708,14.29L9.707,14.29ZM14.293,14.29C14.493,14.1 14.743,14 15.003,14C15.263,14 15.513,14.1 15.713,14.29L20.503,19.08L20.853,18.74L22.293,17.29C22.49,17.1 22.74,17 23,17C23.13,17 23.26,17.03 23.38,17.08C23.76,17.23 24,17.6 24,18L24,23C24,23.55 23.55,24 23,24L18,24C17.6,24 17.23,23.76 17.08,23.38C16.92,23.01 17.01,22.58 17.29,22.29L18.74,20.85L19.08,20.5L14.292,15.71C13.902,15.32 13.902,14.68 14.292,14.29L14.293,14.29Z" style="fill:rgb(23,45,77);fill-rule:nonzero;stroke:rgb(229,189,115);stroke-width:0.42px;"/>
    </g>
</svg>

<svg viewBox="0 0 2000 2000" xmlns="http://www.w3.org/2000/svg" xml:space="preserve" style="fill-rule:evenodd;clip-rule:evenodd;stroke-linejoin:round;stroke-miterlimit:2">
    <path d="M1399 457.84c0-25.3-15.18-45.84-33.88-45.84H585.88c-18.699 0-33.88 20.54-33.88 45.84v1054.32c0 25.3 15.181 45.84 33.88 45.84h779.24c18.7 0 33.88-20.54 33.88-45.84V457.84Z" style="fill:#e6e6e6" transform="matrix(2.36128 0 0 1.7452 -1303.42 -719.023)"/>
    <path d="M9.707 9.71c-.2.19-.45.29-.71.29-.26 0-.51-.1-.71-.29L3.5 4.92l-.35.34-1.44 1.45C1.51 6.9 1.26 7 1 7c-.13 0-.26-.03-.38-.08A.987.987 0 0 1 0 6V1c0-.55.45-1 1-1h5c.4 0 .77.24.92.62.16.37.07.8-.21 1.09L5.26 3.15l-.34.35 4.788 4.79c.39.39.39 1.03 0 1.42h-.001Zm4.586 0c.2.19.45.29.71.29.26 0 .51-.1.71-.29l4.79-4.79.35.34 1.44 1.45c.197.19.447.29.707.29.13 0 .26-.03.38-.08.38-.15.62-.52.62-.92V1c0-.55-.45-1-1-1h-5c-.4 0-.77.24-.92.62-.16.37-.07.8.21 1.09l1.45 1.44.34.35-4.788 4.79c-.39.39-.39 1.03 0 1.42h.001Zm-4.586 4.58c-.2-.19-.45-.29-.71-.29-.26 0-.51.1-.71.29L3.5 19.08l-.35-.34-1.44-1.45C1.51 17.1 1.26 17 1 17c-.13 0-.26.03-.38.08-.38.15-.62.52-.62.92v5c0 .55.45 1 1 1h5c.4 0 .77-.24.92-.62.16-.37.07-.8-.21-1.09l-1.45-1.44-.34-.35 4.788-4.79c.39-.39.39-1.03 0-1.42h-.001Zm4.586 0c.2-.19.45-.29.71-.29.26 0 .51.1.71.29l4.79 4.79.35-.34 1.44-1.45c.197-.19.447-.29.707-.29.13 0 .26.03.38.08.38.15.62.52.62.92v5c0 .55-.45 1-1 1h-5c-.4 0-.77-.24-.92-.62-.16-.37-.07-.8.21-1.09l1.45-1.44.34-.35-4.788-4.79c-.39-.39-.39-1.03 0-1.42h.001Z" style="fill:#172d4d;fill-rule:nonzero;stroke:#e5bd73;stroke-width:.42px" transform="matrix(80 0 0 80 40 40)"/>
</svg>
